X: 1
T: The Blue and White Quilt
T: Dance: the Blue and White Quilt
C: Muriel Johnstone
N: For Barbara Peel -- dancer, quilter and friend.
B: Social Dances 2002
R: jig
Z: 2014 John Chambers <jc:trillian.mit.edu>
M: 6/8
L: 1/8
K: F
c |\
"F"AcA Fdc | "Gm"BdB "C7"Ged | "F/A"cfc "Dm"AGF | "Gm"DGG "C7"GAB |\
"F"AcA "Dm"FAF | "Bb"DFD "F/A"C2B | "F/C"ABc "C7"cde | "F"fFF F2 :|
F |\
"Bb"d3 "F/A"c3 | "C7"cBc "F"A2F | "Bb"D2F "F/A"CFA | "C"Gcc c2^c |\
"Bb"d3 "F/A"c2A | "C"cd"A7/C#"e "Dm"f2B | "F/C"ABc "C7"cde | "F"fFF F2 |]
F |\
"Bb"d2e "F/"fcA | "C7"cBc "F"A2c | "Bb"d2e "F/A"fga | "C"gc'c' "C7"c'2b |\
"F"ac'a "Dm"faf | "C"e/f/g"A7/C#"e "Dm"f2B | "F/C"ABc "C7"cde | "F"fFF F2 |]

%%sep 1 1 500
%%sep 1 1 500
